X: 152
T:Miss Barbara Stewart's Reel
B:William Marshall A Collection Of Strathspey Reels (1781)
C:William Marshall
L:1/8
M:C|
O:Scotland
R:Reel
Z:Clark Bernst + Richard Robinson
%%Page:8 - 2
F:http://richardrobinson.tunebook.org.uk/tune/3995
%%TBL:{"version":1,"type":"tune","id":"3995"}
K:D
%%staves {1 2}
V:1
(g | \
!trill!fe)de (d/c/B/c/) d2 | FD-D.F A3 (a | ^gf)eg f^d e2 | ^GE-EG B3 (g |
!trill!fe)de (d/c/B/c/) d2 | FD-DF A3 F | GBAc Be^df | eEE^G B3 |]
[| (d | \
A)FDF dFDF | AFDF A3 (d  | B)^GEG eGEG | B^GEG B3 (d |
A)FDF dFDF | AFDF A3 (^g | a)fge f^d e2 | ^GE-EG B3 |]
V:2 middle=d clef=bass
L:1/4
z/ | \
dddd  | dd d/a/f/a/ | ee'b^g | e^gbe' | \
d'daf | dd d/f/a/f/ | gagf   | eBE3/ |] \
[| z/ | \
dddd | ddd/a/f/a/ | e^gbg | e^gba | \
dddd | df a/g/f/e/ | defg | eBE3/ |]

